!!!COM: Beethoven
!!!OTL: 13 Variationen uber "Es war einmal ein alter Mann" aus "Das rote Kappchen" von K. Ditters von Dittersdorf
!!!Variation: 8 f
**function	**harm	**kern	**kern	**kern
*M2/4	*M2/4	*staff3	*staff2	*staff1
*	*	*clefF4	*clefF4	*clefG2
*	*	*k[f#c#g#]	*k[f#c#g#]	*k[f#c#g#]
*	*	*M2/4	*M2/4	*M2/4
*	*	*A:	*A:	*A:
8T	8I	8r	8r	8e
=	=	=323	=323	=323
2T	2I64	(16c#LL	2r	(8.aL
.	.	16eJ	.	.
.	.	8EJ	.	.
.	.	.	.	16bJk
.	.	16ALL	.	8.cc#L
.	.	16c#J	.	.
.	.	8EJ	.	.
.	.	.	.	16ddJk
=	=	=324	=324	=324
2T	2V	16BLL	2r	8.eeL
.	.	16dJ	.	.
.	.	8EJ	.	.
.	.	.	.	16ff#Jk
.	.	16G#LL	.	8.eeL
.	.	16BJ	.	.
.	.	8EJ	.	.
.	.	.	.	16ddJk
=	=	=325	=325	=325
2T	2I64	16ALL	2r	8.cc#L
.	.	16c#J	.	.
.	.	8EJ	.	.
.	.	.	.	16bJk
.	.	16c#LL	.	8.cc#L
.	.	16eJ	.	.
.	.	8EJ	.	.
.	.	.	.	16ddJk
=	=	=326	=326	=326
2T	2V	16BLL	2r	8.eeL
.	.	16dJ	.	.
.	.	8EJ	.	.
.	.	.	.	16ff#Jk
.	.	16G#LL	.	8.eeL
.	.	16BJ	.	.
.	.	8EJ)	.	.
.	.	.	.	16ddJk
=	=	=327	=327	=327
4T	4I	16r	2r	8.cc#L)
.	.	(16ALK	.	.
.	.	8AAJ)	.	.
.	.	.	.	(16eJk 16cc#
4D	4V	16r	.	8.dL 8.b
.	.	(16ELK	.	.
.	.	8EEJ)	.	.
.	.	.	.	16dJk 16b
=	=	=328	=328	=328
4T	4I	(16AALL	2r	8c#) 8a
.	.	16EJ	.	.
.	.	8AJ	.	16r
.	.	.	.	(16gg#
4P	4ii65	16DLL	.	8.aaL
.	.	16AJ	.	.
.	.	8dJ	.	.
.	.	.	.	16ff#Jk
=	=	=329	=329	=329
4D	4I64	16ALL	2r	8.eeL
.	.	16c#J	.	.
.	.	8EJ	.	.
.	.	.	.	16cc#Jk
4D	4V	16G#LL	.	8.ddL
.	.	16dJ	.	.
.	.	8EJ	.	.
.	.	.	.	16bJk
=	=	=330	=330	=330
4T	4I	16F#LL	2r	8.aL
.	.	16AJ	.	.
.	.	8c#J	.	.
.	.	.	.	16gg#Jk
4P	4ii65	16DLL	.	8.aaL
.	.	16AJ	.	.
.	.	8dJ	.	.
.	.	.	.	16ff#Jk
=	=	=331	=331	=331
4D	4I64	16ALL	2r	8.eeL
.	.	16c#J	.	.
.	.	8EJ	.	.
.	.	.	.	16ccc#Jk
4D	4V	16G#LL	.	8.dddL
.	.	16BJ	.	.
.	.	[8EJ	.	.
.	.	.	.	16bbJk
=	=	=332	=332	=332
4.T	4.I	16ELL]	4.r	4aa)
.	.	16A	.	.
.	.	16E	.	.
.	.	16C#JJ	.	.
.	.	8AA)	.	8r
*	*	*||	*||	*||
*-	*-	*-	*-	*-
